X: 001
T: Lover's Stream
O: 1775
N: This tune has "1775" at the top-right corner.
B: 204 Favourite Country Dances
N: Published by Straight & Skillern, London ca.1775
F: http://imslp.org/wiki/204_Favourite_Country_Dances_(Various) p.1 #1
Z: 2014 John Chambers <jc:trillian.mit.edu>
M: 6/8
L: 1/8
K: G
%  - - - - - - - - - - - - - - - - - - - - - - - - -
|:\
G2A BdB | cBA G2D | G2A BdB | cAF G2D |\
G2A BdB | cBA B2G | B2^c def | ge^c d3 :|
|:\
d2e faf | gfe d2A | d2e faf | gfe d2D |\
G2A BdB | cBA G2D | G2A BdB | cBA G3 :|
%  - - - - - - - - - - - - - - - - - - - - - - - - -
%%begintext align
%% Lead down on your own sides & turn your
%% Part: at the bott: lead up again & turn at
%% top lead thro' the bott; cast up 1 Cu. right
%% & left at top
%%endtext

%%sep 1 1 500
%%sep 1 1 500
